source/images/logo-tablet-text.svg

<svg width="101" height="18" viewBox="0 0 101 18" fill="none" xmlns="http://www.w3.org/2000/svg">
<path d="M1.21843 16.4708C0.334911 15.1952 -0.0875384 13.6692 0.0177371 12.1337V5.86633C-0.0937138 4.31952 0.32235 2.78017 1.20127 1.48751C1.99601 0.490295 3.35393 -0.00552459 5.27503 4.64252e-05C7.19613 0.00561744 8.49687 0.442942 9.17726 1.31202C10.0069 2.389 10.4117 3.7206 10.3179 5.0641V6.53485H6.76731V4.93875C6.76252 4.51879 6.72526 4.09978 6.65582 3.68527C6.61289 3.3852 6.47149 3.10671 6.25273 2.8914C6.11769 2.77856 5.96091 2.6931 5.79156 2.64001C5.62221 2.58692 5.44369 2.56727 5.26645 2.58221C5.01191 2.5452 4.75185 2.58551 4.52166 2.69765C4.29147 2.8098 4.10233 2.98833 3.98 3.20895C3.7545 3.79581 3.65525 4.42158 3.68841 5.04739V13.0028C3.64928 13.6327 3.7639 14.2628 4.02288 14.8412C4.14662 15.0499 4.33024 15.2188 4.55117 15.3272C4.7721 15.4356 5.02071 15.4787 5.26645 15.4513C5.50792 15.4845 5.75401 15.4427 5.96962 15.3316C6.18523 15.2206 6.35934 15.046 6.46714 14.8329C6.67459 14.2449 6.76483 13.6238 6.733 13.0028V11.3315H10.2836V12.7772C10.3881 14.1405 10.0164 15.4982 9.22872 16.6295C8.474 17.5487 7.1704 18 5.31791 18C3.46542 18 2.01602 17.4986 1.21843 16.4708Z" fill="#111111"/>
<path d="M15.1555 0.242386H19.2207L22.6513 17.7911H19.2722L18.6633 13.9137H15.8159L15.1298 17.766H11.6993L15.1555 0.242386ZM18.2859 11.7075L17.2053 4.65463L16.1332 11.7075H18.2859Z" fill="#111111"/>
<path d="M25.2848 2.88305H22.506V0.242386H31.6999V2.88305H28.9554V17.766H25.2762L25.2848 2.88305Z" fill="#111111"/>
<path d="M38.9133 0.242386H45.8859V2.06411H41.4262V7.85518H45.0454V9.58498H41.4262V16.0111H45.9288V17.766H38.9133V0.242386Z" fill="#444444"/>
<path d="M47.9532 0.242386H49.6685L54.8143 11.883V0.242386H56.9069V17.7911H55.3032L50.1574 5.82454V17.766H48.0304L47.9532 0.242386Z" fill="#444444"/>
<path d="M59.6777 0.242386H66.6417V2.06411H62.182V7.85518H65.8355V9.58498H62.2163V16.0111H66.6932V17.766H59.6777V0.242386Z" fill="#444444"/>
<path d="M68.709 0.242386H72.3282C73.7545 0.130556 75.1748 0.518778 76.3333 1.33709C77.191 2.06411 77.6112 3.25073 77.6112 4.89697C77.6112 7.12537 76.8708 8.48749 75.3899 8.98331L77.9628 17.766H75.5272L73.1687 9.54319H71.2218V17.766H68.709V0.242386ZM72.1395 7.76326C72.9657 7.84115 73.7919 7.61455 74.4551 7.12816C74.7246 6.81737 74.9261 6.45614 75.047 6.06669C75.1679 5.67724 75.2058 5.26779 75.1584 4.86354C75.1756 4.2966 75.0914 3.73106 74.9097 3.19224C74.8359 2.99356 74.722 2.81132 74.5747 2.6563C74.4274 2.50128 74.2497 2.37663 74.052 2.28973C73.4953 2.06717 72.8949 1.96729 72.2939 1.99726H71.1875V7.79668L72.1395 7.76326Z" fill="#444444"/>
<path d="M80.9909 16.4708C80.1711 15.1225 79.7912 13.5634 79.9017 12V6.15045C79.8721 5.02162 80.0167 3.89485 80.3305 2.80784C80.5782 1.99062 81.1046 1.28018 81.8228 0.793919C82.6898 0.284794 83.6935 0.0403107 84.7044 0.091971C85.3583 0.0313764 86.018 0.110661 86.6372 0.324282C87.2564 0.537904 87.8202 0.880707 88.2893 1.32874C89.1122 2.45189 89.501 3.82232 89.3871 5.19781V5.84962H87.0286V5.30644C87.0447 4.65678 86.9929 4.0072 86.8742 3.36773C86.7961 2.9579 86.5636 2.59131 86.2224 2.33988C85.7772 2.08387 85.2632 1.96447 84.7473 1.99726C84.1871 1.95056 83.6303 2.11843 83.195 2.46522C82.8393 2.79406 82.6068 3.22945 82.5346 3.70199C82.426 4.39034 82.3772 5.08641 82.3888 5.78276V12.2925C82.3207 13.2817 82.4941 14.2725 82.8948 15.1839C83.1275 15.4641 83.4229 15.6888 83.7584 15.8408C84.0939 15.9928 84.4606 16.068 84.8305 16.0608C85.2004 16.0535 85.5637 15.9639 85.8927 15.7989C86.2216 15.6339 86.5075 15.3978 86.7284 15.1086C87.1417 14.1448 87.3208 13.1009 87.2516 12.0585V10.8217H84.9703V9.09194H89.5157V17.766H87.9634L87.7147 15.7521C87.5181 16.4212 87.0951 17.0058 86.5143 17.4109C85.9335 17.816 85.2291 18.0177 84.5157 17.9833C83.845 18.0409 83.1702 17.9325 82.554 17.668C81.9377 17.4036 81.4001 16.9918 80.9909 16.4708Z" fill="#444444"/>
<path d="M94.7307 11.5822L90.8456 0.242386H93.1784L95.9314 8.69919L98.6415 0.242386H101L97.1407 11.5822V17.766H94.7393L94.7307 11.5822Z" fill="#444444"/>
</svg>

<svg viewBox="0 0 101 18" fill="none" xmlns="http://www.w3.org/2000/svg"><path d="M1.22 16.47a6.8 6.8 0 0 1-1.2-4.34v-6.26a6.9 6.9 0 0 1 1.18-4.38c.8-1 2.15-1.5 4.08-1.49 1.92 0 3.22.44 3.9 1.31a5.51 5.51 0 0 1 1.14 3.75v1.47h-3.55v-1.6c0-.41-.04-.83-.11-1.24a1.4 1.4 0 0 0-.4-.8 1.35 1.35 0 0 0-1-.3c-.25-.04-.5 0-.74.1-.23.12-.42.3-.54.52a4.46 4.46 0 0 0-.3 1.84v7.95a3.9 3.9 0 0 0 .34 1.84c.13.21.31.38.53.49.22.1.47.15.72.12.24.03.48 0 .7-.12.22-.1.39-.28.5-.5.2-.59.3-1.2.26-1.83v-1.67h3.55v1.45a5.94 5.94 0 0 1-1.05 3.85c-.76.92-2.06 1.37-3.91 1.37s-3.3-.5-4.1-1.53Zm13.94-16.23h4.06l3.43 17.55h-3.38l-.6-3.88h-2.85l-.69 3.86h-3.43l3.46-17.53Zm3.13 11.47-1.08-7.06-1.08 7.06h2.16Zm6.99-8.83h-2.77v-2.64h9.19v2.64h-2.74v14.89h-3.68v-14.89Z" fill="#111"/><path d="M38.91.24h6.98v1.82h-4.46v5.8h3.62v1.72h-3.62v6.43h4.5v1.76h-7.02v-17.53Zm9.04 0h1.72l5.14 11.64v-11.64h2.1v17.55h-1.6l-5.15-11.97v11.95h-2.13l-.08-17.53Zm11.73 0h6.96v1.82h-4.46v5.8h3.66v1.72h-3.62v6.43h4.47v1.76h-7.01v-17.53Zm9.02 0h3.63a6.12 6.12 0 0 1 4 1.1c.86.72 1.28 1.91 1.28 3.56 0 2.23-.74 3.59-2.22 4.08l2.57 8.79h-2.43l-2.36-8.23h-1.95v8.23h-2.51v-17.53Zm3.44 7.52c.83.08 1.65-.15 2.32-.63a2.96 2.96 0 0 0 .7-2.27 4.78 4.78 0 0 0-.25-1.67 1.57 1.57 0 0 0-.86-.9 4.18 4.18 0 0 0-1.76-.3h-1.1v5.8l.95-.03Zm8.86 8.71a7.57 7.57 0 0 1-1.1-4.47v-5.85a11 11 0 0 1 .43-3.34c.25-.82.77-1.53 1.5-2.02.86-.5 1.86-.75 2.87-.7a4.62 4.62 0 0 1 3.59 1.24 5.74 5.74 0 0 1 1.1 3.87v.65h-2.36v-.54c.01-.65-.04-1.3-.16-1.94a1.67 1.67 0 0 0-.65-1.03 2.63 2.63 0 0 0-1.47-.34 2.2 2.2 0 0 0-1.56.47c-.35.32-.58.76-.66 1.23-.1.69-.15 1.39-.14 2.08v6.51c-.07 1 .1 1.98.5 2.9a2.42 2.42 0 0 0 1.94.87 2.48 2.48 0 0 0 1.9-.95c.41-.97.6-2 .52-3.05v-1.24h-2.28v-1.73h4.55v8.68h-1.56l-.25-2.02c-.2.67-.61 1.26-1.2 1.66-.58.4-1.28.6-2 .57a4.09 4.09 0 0 1-3.52-1.5Zm13.73-4.89-3.88-11.34h2.33l2.75 8.46 2.71-8.46h2.36l-3.86 11.34v6.19h-2.4v-6.19Z" fill="#444"/></svg>
